icon-themes/breeze_svg/vcl/res/ncollate.svg

<svg viewBox="0 0 108 43" xmlns="http://www.w3.org/2000/svg"><path d="m13 6v6h-8.5-1.5v25h1.5 18 1.5v-6h1 7.5 1.5v-16.5625-2.1875l-6-6.25h-1.5-12zm35 0v6h-8.5-1.5v25h1.5 18 1.5v-6h1 7.5 1.5v-16.5625-2.1875l-6-6.25h-1.5-12zm35 0v6h-8.5-1.5v25h1.5 18 1.5v-6h1 7.5 1.5v-16.5625-2.1875l-6-6.25h-1.5-12zm-69 1h13v5 1h6v17h-8-1v-9.552734-2.197266-.011719l-5.988281-6.238281-.011719.015625v-.015625h-1.5-2.5zm35 0h13v5 1h6v17h-8-1v-9.552734-2.197266-.011719l-5.988281-6.238281-.011719.015625v-.015625h-1.5-2.5zm35 0h13v5 1h6v17h-8-1v-9.552734-2.197266-.011719l-5.988281-6.238281-.011719.015625v-.015625h-1.5-2.5zm-80 6h13v5 1h6v11 1 5h-19zm35 0h13v5 1h6v11 1 5h-19zm35 0h13v5 1h6v11 1 5h-19zm24.367188 3.904297c-1.458341 0-2.575533.294212-3.351563.882812l.4375 1.140625c.32291-.2552.710932-.458275 1.164063-.609375.45312-.1515.937494-.226562 1.453124-.226562 1.432291 0 2.148428.625 2.148438 1.875-.00001.3333-.0573.622387-.17187.867187-.114595.2448-.263028.440138-.445318.585938-.1823.1458-.414062.262562-.695312.351562-.27605.0885-.554688.1515-.835938.1875-.27604.032-.596357.044688-.960937.054688h-.390625v1.164062c.05208 0 .130205-.000234.234375.009766h.234375c.42187.01.791655.038937 1.109375.085938.32291.0416.63541.117162.9375.226562.30728.1042.55728.244775.75.421875.197905.1719.354155.401.468745.6875.11978.2812.17969.611987.17969.992187 0 .697901-.23178 1.242213-.69531 1.632813-.45834.3854-1.078135.578125-1.859375.578125-1.01563 0-1.89063-.288988-2.625-.867188l-.4375 1.148438c.24999.2396.64583.450513 1.1875.632812.54687.182401 1.169268.273438 1.867187.273438v-.001953c1.15104 0 2.093748-.307275 2.828128-.921875.73437-.6145 1.10155-1.434938 1.10156-2.460938-.00001-.8073-.20834-1.4739-.625-2-.41146-.526-.98178-.867237-1.710938-1.023437.651038-.2032 1.156248-.539113 1.515628-1.007813.35937-.4688.53905-1.067675.53906-1.796875-.00001-.599-.16147-1.1198-.48437-1.5625-.32294-.4479-.73439-.778687-1.23438-.992187-.5-.2187-1.044282-.328125-1.632812-.328125zm-68.609376.095703c-.145835.107-.315106.213313-.507812.320312-.19271.1069-.354169.191001-.484375.25-.125002.0589-.315106.14356-.570313.25586-.255209.1123-.424482.187609-.507812.224609v1.339844c.760415-.2513 1.403644-.55335 1.929688-.90625v10.515625h1.382812v-12zm33.820313 0c-1.38542 0-2.437502.341537-3.15625 1.023438l.453125 1.179687c.635414-.6452 1.505205-.966797 2.609375-.966797.661453 0 1.17187.179116 1.53125.541016.359369.3568.539057.861319.539063 1.511718l-.179688.496094c-.114589.3358-.299485.743863-.554688 1.226563-.250005.4826-.51042.87744-.78125 1.18164l-4.039062 4.515625.179688 1.291016h6.835937l.085937-1.210938h-5.414062l3.296875-3.548828c.239577-.257.473952-.577937.703125-.960937.234368-.3829.427077-.734688.578125-1.054688.151035-.32.294264-.658825.429687-1.015625.140619-.3567.231768-.594143.273438-.714843.04166-.1259.07291-.225828.09375-.298829-.000008-.9705-.315112-1.745265-.945312-2.322265-.630214-.5823-1.476568-.873047-2.539063-.873047zm24.773437 5.904297c-1.458339 0-2.575532.294212-3.351562.882812l.4375 1.140625c.32291-.2552.710932-.458275 1.164062-.609375.45312-.1515.937495-.226562 1.453126-.226562 1.432289 0 2.148427.625 2.148437 1.875-.00001.3333-.057305.622387-.171875.867187-.11459.2448-.263023.440138-.445312.585938-.1823.1458-.414063.262562-.695313.351562-.27605.0885-.554687.1515-.835937.1875-.276041.032-.596358.044688-.960938.054688h-.390625v1.164062c.05208 0 .130205-.000234.234375.009766h.234375c.42187.01.791655.038937 1.109375.085938.32291.0416.63541.117162.9375.226562.30728.1042.55728.244775.75.421875.19791.1719.35415.401.46875.6875.11978.2812.179688.611987.179688.992187 0 .697901-.231783 1.242213-.695313 1.632813-.45834.3854-1.078135.578125-1.859375.578125-1.01563 0-1.89063-.288988-2.625-.867188l-.4375 1.148438c.24999.2396.64583.450513 1.1875.632812.54687.182401 1.169268.273438 1.867188.273438v-.001953c1.151039 0 2.093744-.307275 2.828124-.921875.734371-.6145 1.101553-1.434938 1.101563-2.460938-.00001-.8073-.20834-1.4739-.625-2-.41146-.526-.981778-.867237-1.710937-1.023437.651039-.2032 1.156244-.539113 1.515624-1.007813.359371-.4688.539053-1.067675.539063-1.796875-.00001-.599-.161475-1.1198-.484375-1.5625-.32293-.4479-.734385-.778687-1.234375-.992187-.5-.2187-1.044282-.328125-1.632813-.328125zm-68.59375.095703c-.145835.107-.315106.213313-.507812.320312-.19271.1069-.354169.191001-.484375.25-.125002.0589-.315106.14356-.570313.25586-.255209.1123-.424482.187609-.507812.224609v1.339844c.760415-.2513 1.403644-.55335 1.929688-.90625v10.515625h1.382812v-12zm33.71875 0c-1.385419 0-2.437502.341537-3.15625 1.023438l.453126 1.179687c.635413-.6452 1.505204-.966797 2.609374-.966797.661454 0 1.17187.179116 1.53125.541016.35937.3568.539057.861319.539063 1.511718l-.179687.496094c-.11459.3358-.299485.743863-.554688 1.226563-.250005.4826-.510421.87744-.78125 1.18164l-4.039062 4.515625.179687 1.291016h6.835937l.085938-1.210938h-5.414062l3.296874-3.548828c.239577-.257.473952-.577937.703126-.960937.234368-.3829.427076-.734688.578124-1.054688.151036-.32.294265-.658825.429688-1.015625.140618-.3567.231767-.594143.273438-.714843.041659-.1259.07291-.225828.09375-.298829-.000009-.9705-.315112-1.745265-.945313-2.322265-.630214-.5823-1.476568-.873047-2.539063-.873047z" fill="#4d4d4d"/></svg>

<svg xmlns="http://www.w3.org/2000/svg" viewBox="0 0 108 43">
 <path 
     style="fill:#4d4d4d" 
     d="M 13 6 L 13 12 L 4.5 12 L 3 12 L 3 37 L 4.5 37 L 22.5 37 L 24 37 L 24 31 L 25 31 L 32.5 31 L 34 31 L 34 14.4375 L 34 12.25 L 28 6 L 26.5 6 L 14.5 6 L 13 6 z M 48 6 L 48 12 L 39.5 12 L 38 12 L 38 37 L 39.5 37 L 57.5 37 L 59 37 L 59 31 L 60 31 L 67.5 31 L 69 31 L 69 14.4375 L 69 12.25 L 63 6 L 61.5 6 L 49.5 6 L 48 6 z M 83 6 L 83 12 L 74.5 12 L 73 12 L 73 37 L 74.5 37 L 92.5 37 L 94 37 L 94 31 L 95 31 L 102.5 31 L 104 31 L 104 14.4375 L 104 12.25 L 98 6 L 96.5 6 L 84.5 6 L 83 6 z M 14 7 L 27 7 L 27 12 L 27 13 L 33 13 L 33 30 L 25 30 L 24 30 L 24 20.447266 L 24 18.25 L 24 18.238281 L 18.011719 12 L 18 12.015625 L 18 12 L 16.5 12 L 14 12 L 14 7 z M 49 7 L 62 7 L 62 12 L 62 13 L 68 13 L 68 30 L 60 30 L 59 30 L 59 20.447266 L 59 18.25 L 59 18.238281 L 53.011719 12 L 53 12.015625 L 53 12 L 51.5 12 L 49 12 L 49 7 z M 84 7 L 97 7 L 97 12 L 97 13 L 103 13 L 103 30 L 95 30 L 94 30 L 94 20.447266 L 94 18.25 L 94 18.238281 L 88.011719 12 L 88 12.015625 L 88 12 L 86.5 12 L 84 12 L 84 7 z M 4 13 L 17 13 L 17 18 L 17 19 L 23 19 L 23 30 L 23 31 L 23 36 L 4 36 L 4 13 z M 39 13 L 52 13 L 52 18 L 52 19 L 58 19 L 58 30 L 58 31 L 58 36 L 39 36 L 39 13 z M 74 13 L 87 13 L 87 18 L 87 19 L 93 19 L 93 30 L 93 31 L 93 36 L 74 36 L 74 13 z M 98.367188 16.904297 C 96.908847 16.904297 95.791655 17.198509 95.015625 17.787109 L 95.453125 18.927734 C 95.776035 18.672534 96.164057 18.469459 96.617188 18.318359 C 97.070308 18.166859 97.554682 18.091797 98.070312 18.091797 C 99.502603 18.091797 100.21874 18.716797 100.21875 19.966797 C 100.21874 20.300097 100.16145 20.589184 100.04688 20.833984 C 99.932285 21.078784 99.783852 21.274122 99.601562 21.419922 C 99.419262 21.565722 99.1875 21.682484 98.90625 21.771484 C 98.6302 21.859984 98.351562 21.922984 98.070312 21.958984 C 97.794272 21.990984 97.473955 22.003672 97.109375 22.013672 L 96.71875 22.013672 L 96.71875 23.177734 C 96.77083 23.177734 96.848955 23.1775 96.953125 23.1875 L 97.1875 23.1875 C 97.60937 23.1975 97.979155 23.226437 98.296875 23.273438 C 98.619785 23.315038 98.932285 23.3906 99.234375 23.5 C 99.541655 23.6042 99.791655 23.744775 99.984375 23.921875 C 100.18228 24.093775 100.33853 24.322875 100.45312 24.609375 C 100.5729 24.890575 100.63281 25.221362 100.63281 25.601562 C 100.63281 26.299463 100.40103 26.843775 99.9375 27.234375 C 99.47916 27.619775 98.859365 27.8125 98.078125 27.8125 C 97.062495 27.8125 96.187495 27.523512 95.453125 26.945312 L 95.015625 28.09375 C 95.265615 28.33335 95.661455 28.544263 96.203125 28.726562 C 96.749995 28.908963 97.372393 29 98.070312 29 L 98.070312 28.998047 C 99.221352 28.998047 100.16406 28.690772 100.89844 28.076172 C 101.63281 27.461672 101.99999 26.641234 102 25.615234 C 101.99999 24.807934 101.79166 24.141334 101.375 23.615234 C 100.96354 23.089234 100.39322 22.747997 99.664062 22.591797 C 100.3151 22.388597 100.82031 22.052684 101.17969 21.583984 C 101.53906 21.115184 101.71874 20.516309 101.71875 19.787109 C 101.71874 19.188109 101.55728 18.667309 101.23438 18.224609 C 100.91144 17.776709 100.49999 17.445922 100 17.232422 C 99.5 17.013722 98.955718 16.904297 98.367188 16.904297 z M 29.757812 17 C 29.611977 17.107 29.442706 17.213313 29.25 17.320312 C 29.05729 17.427212 28.895831 17.511313 28.765625 17.570312 C 28.640623 17.629212 28.450519 17.713872 28.195312 17.826172 C 27.940103 17.938472 27.77083 18.013781 27.6875 18.050781 L 27.6875 19.390625 C 28.447915 19.139325 29.091144 18.837275 29.617188 18.484375 L 29.617188 29 L 31 29 L 31 17 L 29.757812 17 z M 63.578125 17 C 62.192705 17 61.140623 17.341537 60.421875 18.023438 L 60.875 19.203125 C 61.510414 18.557925 62.380205 18.236328 63.484375 18.236328 C 64.145828 18.236328 64.656245 18.415444 65.015625 18.777344 C 65.374994 19.134144 65.554682 19.638663 65.554688 20.289062 L 65.375 20.785156 C 65.260411 21.120956 65.075515 21.529019 64.820312 22.011719 C 64.570307 22.494319 64.309892 22.889159 64.039062 23.193359 L 60 27.708984 L 60.179688 29 L 67.015625 29 L 67.101562 27.789062 L 61.6875 27.789062 L 64.984375 24.240234 C 65.223952 23.983234 65.458327 23.662297 65.6875 23.279297 C 65.921868 22.896397 66.114577 22.544609 66.265625 22.224609 C 66.41666 21.904609 66.559889 21.565784 66.695312 21.208984 C 66.835931 20.852284 66.92708 20.614841 66.96875 20.494141 C 67.01041 20.368241 67.04166 20.268313 67.0625 20.195312 C 67.062492 19.224812 66.747388 18.450047 66.117188 17.873047 C 65.486974 17.290747 64.64062 17 63.578125 17 z M 88.351562 22.904297 C 86.893223 22.904297 85.77603 23.198509 85 23.787109 L 85.4375 24.927734 C 85.76041 24.672534 86.148432 24.469459 86.601562 24.318359 C 87.054682 24.166859 87.539057 24.091797 88.054688 24.091797 C 89.486977 24.091797 90.203115 24.716797 90.203125 25.966797 C 90.203115 26.300097 90.14582 26.589184 90.03125 26.833984 C 89.91666 27.078784 89.768227 27.274122 89.585938 27.419922 C 89.403638 27.565722 89.171875 27.682484 88.890625 27.771484 C 88.614575 27.859984 88.335938 27.922984 88.054688 27.958984 C 87.778647 27.990984 87.45833 28.003672 87.09375 28.013672 L 86.703125 28.013672 L 86.703125 29.177734 C 86.755205 29.177734 86.83333 29.1775 86.9375 29.1875 L 87.171875 29.1875 C 87.593745 29.1975 87.96353 29.226437 88.28125 29.273438 C 88.60416 29.315038 88.91666 29.3906 89.21875 29.5 C 89.52603 29.6042 89.77603 29.744775 89.96875 29.921875 C 90.16666 30.093775 90.3229 30.322875 90.4375 30.609375 C 90.55728 30.890575 90.617188 31.221362 90.617188 31.601562 C 90.617188 32.299463 90.385405 32.843775 89.921875 33.234375 C 89.463535 33.619775 88.84374 33.8125 88.0625 33.8125 C 87.04687 33.8125 86.17187 33.523512 85.4375 32.945312 L 85 34.09375 C 85.24999 34.33335 85.64583 34.544263 86.1875 34.726562 C 86.73437 34.908963 87.356768 35 88.054688 35 L 88.054688 34.998047 C 89.205727 34.998047 90.148432 34.690772 90.882812 34.076172 C 91.617183 33.461672 91.984365 32.641234 91.984375 31.615234 C 91.984365 30.807934 91.776035 30.141334 91.359375 29.615234 C 90.947915 29.089234 90.377597 28.747997 89.648438 28.591797 C 90.299477 28.388597 90.804682 28.052684 91.164062 27.583984 C 91.523433 27.115184 91.703115 26.516309 91.703125 25.787109 C 91.703115 25.188109 91.54165 24.667309 91.21875 24.224609 C 90.89582 23.776709 90.484365 23.445922 89.984375 23.232422 C 89.484375 23.013722 88.940093 22.904297 88.351562 22.904297 z M 19.757812 23 C 19.611977 23.107 19.442706 23.213313 19.25 23.320312 C 19.05729 23.427212 18.895831 23.511313 18.765625 23.570312 C 18.640623 23.629212 18.450519 23.713872 18.195312 23.826172 C 17.940103 23.938472 17.77083 24.013781 17.6875 24.050781 L 17.6875 25.390625 C 18.447915 25.139325 19.091144 24.837275 19.617188 24.484375 L 19.617188 35 L 21 35 L 21 23 L 19.757812 23 z M 53.476562 23 C 52.091143 23 51.03906 23.341537 50.320312 24.023438 L 50.773438 25.203125 C 51.408851 24.557925 52.278642 24.236328 53.382812 24.236328 C 54.044266 24.236328 54.554682 24.415444 54.914062 24.777344 C 55.273432 25.134144 55.453119 25.638663 55.453125 26.289062 L 55.273438 26.785156 C 55.158848 27.120956 54.973953 27.529019 54.71875 28.011719 C 54.468745 28.494319 54.208329 28.889159 53.9375 29.193359 L 49.898438 33.708984 L 50.078125 35 L 56.914062 35 L 57 33.789062 L 51.585938 33.789062 L 54.882812 30.240234 C 55.122389 29.983234 55.356764 29.662297 55.585938 29.279297 C 55.820306 28.896397 56.013014 28.544609 56.164062 28.224609 C 56.315098 27.904609 56.458327 27.565784 56.59375 27.208984 C 56.734368 26.852284 56.825517 26.614841 56.867188 26.494141 C 56.908847 26.368241 56.940098 26.268313 56.960938 26.195312 C 56.960929 25.224812 56.645826 24.450047 56.015625 23.873047 C 55.385411 23.290747 54.539057 23 53.476562 23 z "
     />
</svg>
